raw-svg/folder-open.svg

<svg viewBox="0 0 24 24" xmlns="http://www.w3.org/2000/svg"><path d="m4.25 18.5h-1.5v-11a2.71 2.71 0 0 1 2.68-2.75h2.41a.76.76 0 0 1 .58.25l2.67 3.23h4.91a2.71 2.71 0 0 1 2.72 2.77v.5h-1.5v-.5a1.22 1.22 0 0 0 -1.22-1.25h-5.27a.74.74 0 0 1 -.57-.27l-2.67-3.23h-2.06a1.22 1.22 0 0 0 -1.18 1.25z"/><path d="m17.12 19.25h-13.62a.76.76 0 0 1 -.64-.36.75.75 0 0 1 0-.74l3.38-6.5a.77.77 0 0 1 .67-.4h13.59a.76.76 0 0 1 .64.36.75.75 0 0 1 0 .74l-3.38 6.5a.77.77 0 0 1 -.64.4zm-12.39-1.5h11.94l2.6-5h-11.94z"/></svg>

<svg xmlns="http://www.w3.org/2000/svg" viewBox="0 0 24 24"><g id="folder-open"><path d="M4.25,18.5H2.75V7.5A2.71,2.71,0,0,1,5.43,4.75H7.84A.76.76,0,0,1,8.42,5l2.67,3.23H16A2.71,2.71,0,0,1,18.72,11v.5h-1.5V11A1.22,1.22,0,0,0,16,9.75H10.73a.74.74,0,0,1-.57-.27L7.49,6.25H5.43A1.22,1.22,0,0,0,4.25,7.5Z"/><path d="M17.12,19.25H3.5a.76.76,0,0,1-.64-.36.75.75,0,0,1,0-.74l3.38-6.5a.77.77,0,0,1,.67-.4H20.5a.76.76,0,0,1,.64.36.75.75,0,0,1,0,.74l-3.38,6.5A.77.77,0,0,1,17.12,19.25ZM4.73,17.75H16.67l2.6-5H7.33Z"/></g></svg>
